X: 040185
T: Dollymount Jig
S: "gan ainm" from Mike Reynolds
Z: B.Black
R: jig
M: 6/8
L: 1/8
K: Ador
G | EAA ABd | eAA BAG | EGG GBd | dBA GED |
EAA ABd | eAA BAG | ege dBG | BAG A2 :|
e | age a2 g | age edB | BGE G2 A | BAB GDE |
age a2 g | age edB | AGE GBd | dBG A2 :|
